src/lib/packages/icons/src/assets/filled/caret-left-square.svg

<svg width="24" height="24" viewBox="0 0 24 24" fill="none" xmlns="http://www.w3.org/2000/svg">
<path d="M17.625 3H6.375C4.125 3 3 4.125 3 6.375V17.625C3 19.875 4.125 21 6.375 21H17.625C19.875 21 21 19.875 21 17.625V6.375C21 4.125 19.875 3 17.625 3ZM14.167 15.0991C14.167 15.8631 13.281 16.2791 12.698 15.7881L9.23608 12.8679C8.69908 12.4149 8.69908 11.5851 9.23608 11.1321L12.698 8.21191C13.28 7.72091 14.167 8.13688 14.167 8.90088V15.0991Z" fill="currentColor"/>
</svg>

<svg xmlns="http://www.w3.org/2000/svg" width="24" height="24" fill="none"><path fill="currentColor" d="M17.625 3H6.375C4.125 3 3 4.125 3 6.375v11.25C3 19.875 4.125 21 6.375 21h11.25C19.875 21 21 19.875 21 17.625V6.375C21 4.125 19.875 3 17.625 3Zm-3.458 12.1c0 .763-.886 1.18-1.469.688l-3.462-2.92a1.137 1.137 0 0 1 0-1.736l3.462-2.92c.582-.491 1.469-.075 1.469.689v6.198Z"/></svg>
